X:1
T:Wo Gott zum Haus, LM
T:Wo Gott zum Haus, LM
T:Geistliche Lieder (Wittenberg, German
T:Public Domain Courtesy of the Cyber Hymnal™
C:Geistliche Lieder (Wittenberg, German
Z:Public Domain
Z:Courtesy of the Cyber Hymnal™
%%score ( 1 2 ) ( 3 4 )
L:1/8
Q:1/4=110
M:4/4
K:Eb
V:1 treble 
V:2 treble 
V:3 bass 
V:4 bass 
V:1
 [B,E]4 [EB]2 [FB]2 | [EG]2 [DF]2 [EG]2 [E=A]2 | [DB]3 [FB] [EG]2 [EB]2 | %3
 [FA]2 [Dd]2 [EG]2 [B,F]2 | [B,E]3 [EB] [Ec]2 [Ec]2 | [EG]2 [FB]2 [FA]2 [EA]2 | %6
 [DG]3 [Ee] [Gd]2 [Ec]2 | [EB]2 [Ec]2 (AG) [DF]2 | E8 |] %9
V:2
 x8 | x8 | x8 | x8 | x8 | x8 | x8 | x4 E2 x2 | E8 |] %9
V:3
 [E,G,]4 [E,G,]2 [D,B,]2 | [E,B,]2 [B,,B,]2 [E,B,]2 [C,F,]2 | [B,,F,]3 [D,B,] [E,B,]2 [G,B,]2 | %3
 [F,C]2 [B,,B,]2 [C,E,]2 [D,F,]2 | [E,G,]3 [E,G,] [A,,A,]2 [C,A,]2 | %5
 [E,B,]2 [B,,D]2 [F,C]2 [F,,C]2 | [G,,=B,]3 [C,C] [G,B,]2 A,2 | [E,G,]2 [C,G,]2 [F,A,]2 [B,,B,]2 | %8
 [E,G,]8 |] %9
V:4
 x8 | x8 | x8 | x8 | x8 | x8 | x6 A,2 | x8 | x8 |] %9

